svg/ceiling_fan_light.svg

<svg xmlns="http://www.w3.org/2000/svg" viewBox="0 0 24 24"><path d="M8 3v2h3v5.27c-.62.36-1 1.02-1 1.73v1h4v-1c0-.71-.38-1.37-1-1.73V5h3V3zm-2 9c-2.21 0-4 .67-4 1.5S3.79 15 6 15s4-.67 4-1.5S8.21 12 6 12m12 0c-2.21 0-4 .67-4 1.5s1.79 1.5 4 1.5 4-.67 4-1.5-1.79-1.5-4-1.5m-8 2v1c0 .72.38 1.38 1 1.73.62.36 1.38.36 2 0 .62-.35 1-1.02 1-1.73v-1zm3 5v3h-2v-3zm2.88-2.54L18 18.59 16.59 20l-2.12-2.12zm-6.34 1.42L7.41 20 6 18.59l2.12-2.12z"/></svg>

<svg xmlns="http://www.w3.org/2000/svg" id="mdi-ceiling-fan-light" viewBox="0 0 24 24"><path d="M8 3V5H11V10.27C10.38 10.63 10 11.29 10 12V13H14V12C14 11.29 13.62 10.63 13 10.27V5H16V3H8M6 12C3.79 12 2 12.67 2 13.5C2 14.33 3.79 15 6 15S10 14.33 10 13.5C10 12.67 8.21 12 6 12M18 12C15.79 12 14 12.67 14 13.5C14 14.33 15.79 15 18 15S22 14.33 22 13.5C22 12.67 20.21 12 18 12M10 14V15C10 15.72 10.38 16.38 11 16.73C11.62 17.09 12.38 17.09 13 16.73C13.62 16.38 14 15.71 14 15V14H10M13 19V22H11V19H13M15.88 16.46L18 18.59L16.59 20L14.47 17.88L15.88 16.46M9.54 17.88L7.41 20L6 18.59L8.12 16.47L9.54 17.88" /></svg>
